#define grey_width 32
#define grey_height 32
static uint8_t grey_bits[] = {
   0x55, 0x55, 0x55, 0x55, 0xaa, 0xaa, 0xaa, 0xaa, 0x55, 0x55, 0x55, 0x55,
   0xaa, 0xaa, 0xaa, 0xaa, 0x55, 0x55, 0x55, 0x55, 0xaa, 0xaa, 0xaa, 0xaa,
   0x55, 0x55, 0x55, 0x55, 0xaa, 0xaa, 0xaa, 0xaa, 0x55, 0x55, 0x55, 0x55,
   0xaa, 0xaa, 0xaa, 0xaa, 0x55, 0x55, 0x55, 0x55, 0xaa, 0xaa, 0xaa, 0xaa,
   0x55, 0x55, 0x55, 0x55, 0xaa, 0xaa, 0xaa, 0xaa, 0x55, 0x55, 0x55, 0x55,
   0xaa, 0xaa, 0xaa, 0xaa, 0x55, 0x55, 0x55, 0x55, 0xaa, 0xaa, 0xaa, 0xaa,
   0x55, 0x55, 0x55, 0x55, 0xaa, 0xaa, 0xaa, 0xaa, 0x55, 0x55, 0x55, 0x55,
   0xaa, 0xaa, 0xaa, 0xaa, 0x55, 0x55, 0x55, 0x55, 0xaa, 0xaa, 0xaa, 0xaa,
   0x55, 0x55, 0x55, 0x55, 0xaa, 0xaa, 0xaa, 0xaa, 0x55, 0x55, 0x55, 0x55,
   0xaa, 0xaa, 0xaa, 0xaa, 0x55, 0x55, 0x55, 0x55, 0xaa, 0xaa, 0xaa, 0xaa,
   0x55, 0x55, 0x55, 0x55, 0xaa, 0xaa, 0xaa, 0xaa};
