#define pause_width 32
#define pause_height 32
static uint8_t pause_bits[] = {
   0x00, 0x00, 0x00, 0x00, 0x00, 0x00, 0x00, 0x00, 0x00, 0x00, 0x00, 0x00,
   0x00, 0x1f, 0xf8, 0x00, 0x00, 0x1f, 0xf8, 0x00, 0x00, 0x1f, 0xf8, 0x00,
   0x00, 0x1f, 0xf8, 0x00, 0x00, 0x1f, 0xf8, 0x00, 0x00, 0x1f, 0xf8, 0x00,
   0x00, 0x1f, 0xf8, 0x00, 0x00, 0x1f, 0xf8, 0x00, 0x00, 0x1f, 0xf8, 0x00,
   0x00, 0x1f, 0xf8, 0x00, 0x00, 0x1f, 0xf8, 0x00, 0x00, 0x1f, 0xf8, 0x00,
   0x00, 0x1f, 0xf8, 0x00, 0x00, 0x1f, 0xf8, 0x00, 0x00, 0x1f, 0xf8, 0x00,
   0x00, 0x1f, 0xf8, 0x00, 0x00, 0x1f, 0xf8, 0x00, 0x00, 0x1f, 0xf8, 0x00,
   0x00, 0x1f, 0xf8, 0x00, 0x00, 0x1f, 0xf8, 0x00, 0x00, 0x1f, 0xf8, 0x00,
   0x00, 0x1f, 0xf8, 0x00, 0x00, 0x1f, 0xf8, 0x00, 0x00, 0x1f, 0xf8, 0x00,
   0x00, 0x1f, 0xf8, 0x00, 0x00, 0x1f, 0xf8, 0x00, 0x00, 0x00, 0x00, 0x00,
   0x00, 0x00, 0x00, 0x00, 0x00, 0x00, 0x00, 0x00};
